!!!!SEGMENT: Wil1003d-Missa_Queramus_cum_pastoribus-Sanctus
!!!id: Wil1003d
!!!AGN: Mass; Sanctus
!!!voices: 2-4
!!!OPR: Missa Queramus cum pastoribus
!!!COM: Adrian Willaert
!!!OTL: Sanctus
**kern	**kern	**kern	**kern
*part4	*part3	*part2	*part1
*staff4	*staff3	*staff2	*staff1
*I"Bassus	*I"Tenor	*I"Altus	*I"Superius
*I'B	*I'T	*I'A	*I'S
*clefF4	*clefGv2	*clefG2	*clefG2
*k[b-]	*k[b-]	*k[b-]	*k[b-]
*F:	*F:	*F:	*F:
*M2/1	*M2/1	*M2/1	*M2/1
*met(C|)	*met(C|)	*met(C|)	*met(C|)
=1	=1	=1	=1
!!section: Sanctus
!!!OMD: Sanctus
0r	0r	1r	[0cc
.	.	1c	.
=2	=2	=2	=2
0r	0r	1.f	1cc]
.	.	.	1f
.	.	4e	.
.	.	4d	.
=3	=3	=3	=3
0r	0r	2e	1.cc
.	.	2.f	.
.	.	4g	.
.	.	2a	2cc
=4	=4	=4	=4
0r	0r	2d	1b-y
.	.	1g	.
.	.	.	1a
.	.	[2f	.
=5	=5	=5	=5
2r	0r	2f]	1g
2C	.	2e	.
2D	.	2f	2r
2E	.	4e	2g
.	.	4d	.
=6	=6	=6	=6
2F	0r	2c	2a
2D	.	2d	2b-y
1C	.	4e	1cc
.	.	4f	.
.	.	[2g	.
=7	=7	=7	=7
1r	[0c	4g]	1a
.	.	4f	.
.	.	1f	.
1C	.	.	1g
.	.	2e	.
=8	=8	=8	=8
1.F	1c]	0f	0r
.	1F	.	.
4E	.	.	.
4D	.	.	.
=9	=9	=9	=9
2E	1.c	0r	0r
2.F	.	.	.
4G	.	.	.
2A	2c	.	.
=10	=10	=10	=10
2G	1B-y	0r	0r
2.D	.	.	.
.	1A	.	.
4E	.	.	.
2F	.	.	.
=11	=11	=11	=11
2E	1G	1r	0r
2.C	.	.	.
.	2r	1c	.
4D	.	.	.
2E	2G	.	.
=12	=12	=12	=12
1D	2A	1.f	1r
.	2B-y	.	.
1C	1c	.	1g
.	.	4e	.
.	.	4d	.
=13	=13	=13	=13
0r	1A	2.e	1.cc
.	.	4f	.
.	1G	[1g	.
.	.	.	4b-y
.	.	.	4a
=14	=14	=14	=14
0r	0r	2g]	2b-y
.	.	4f	2.cc
.	.	4e	.
.	.	2f	.
.	.	.	4dd
.	.	[2g	2ee
=15	=15	=15	=15
0r	0r	4g]	2dd
.	.	4f	.
.	.	4e	2.g
.	.	4d	.
.	.	2c	.
.	.	.	4a
.	.	4d	2b-y
.	.	4e	.
=16	=16	=16	=16
0r	0r	4f	2a
.	.	4g	.
.	.	2.a	2.f
.	.	4g	4g
.	.	[2f	2a
=17	=17	=17	=17
0r	1c	2f]	1g
.	.	2e	.
.	[1f	1d	2r
.	.	.	[2a
=18	=18	=18	=18
0r	2f]	0c	2a]
.	4e	.	4g
.	4d	.	4f
.	2.e	.	1g
.	4f	.	.
=19	=19	=19	=19
0r	1d	2r	2f
.	.	1a	1ff
.	[1c	.	.
.	.	4g	4ee
.	.	4f	4dd
=20	=20	=20	=20
0r	2c]	2g	1ee
.	4B-y	1a	.
.	4A	.	.
.	1B-y	.	1dd
.	.	2g	.
=21	=21	=21	=21
[0F	2.A	2a	1cc
.	.	1f	.
.	4B-y	.	.
.	2c	.	1r
.	[2A	4e	.
.	.	4d	.
=22	=22	=22	=22
1F]	2A]	2c	1.cc
.	4G	2f	.
.	4F	.	.
[1C	1G	1e	.
.	.	.	4b-y
.	.	.	4a
=23	=23	=23	=23
1C]	1.c	2r	2g
.	.	1g	2.ee
1r	.	.	.
.	.	.	4dd
.	4F	[2a	[2cc
.	4G	.	.
=24	=24	=24	=24
1.F	4A	4a]	4cc]
.	4B-y	4g	4b-y
.	1c	2.f	1a
.	.	4e	.
2F	4B-y	2d	4g
.	4A	.	4f
=25	=25	=25	=25
2E	2G	2c	2g
2D	2F	1f	1a
1C	[1c	.	.
.	.	2e	2g
=26	=26	=26	=26
1F	2c]	1f	1a
.	2d	.	.
2G	2e	2r	1r
2A	2f	2c	.
=27	=27	=27	=27
1B-y	2f	1d	1dd
.	2g	.	.
2.A	1c	2e	2cc
.	.	[2f	2a
4F	.	.	.
=28	=28	=28	=28
1G	1r	2f]	1b-y
.	.	2e	.
1F	[1c	2f	2a
.	.	[2a	[2cc
=29	=29	=29	=29
2.A	2c]	4a]	2cc]
.	.	4g	.
.	2c	1f	4b-y
4B-y	.	.	4a
2c	1c	.	1g
2C	.	2e	.
=30	=30	=30	=30
1D	1F	2.f	2r
.	.	.	2f
.	.	4d	.
2C	[1c	2e	2g
[2F	.	[2f	[2a
=31	=31	=31	=31
2F]	2c]	2f]	2a]
2G	2B-y	2d	2b-y
2.F	2.A	1f	2cc
.	.	.	[2a
4D	8GL	.	.
.	8FJ	.	.
=32	=32	=32	=32
1F	1A	0c	4a]
.	.	.	4g
.	.	.	1f
1C	1G	.	.
.	.	.	2e
=33	=33	=33	=33
1F	2r	1A	2.f
.	2F	.	.
.	.	.	4g
2.D	2.F	[1d	4a
.	.	.	4b-y
.	.	.	[2a
4E	4G	.	.
=34	=34	=34	=34
2F	2A	1d]	2a]
2BB-y	2B-y	.	4g
.	.	.	4f
1C	[1G	1c	[1e
=35	=35	=35	=35
2.C	1G]	2r	1e]
.	.	2c	.
4D	.	.	.
2E	2r	2.c	1r
2F	2A	.	.
.	.	4d	.
=36	=36	=36	=36
2C	2A	2e	2r
2D	2A	2f	2f
4BB-y	1B-y	[1d	2.f
4C	.	.	.
4D	.	.	.
4E	.	.	4g
=37	=37	=37	=37
2F	2A	1d]	2a
2G	2G	.	2b-y
4C	2.G	1e	[1g
4D	.	.	.
4E	.	.	.
4F	4A	.	.
=38	=38	=38	=38
2G	2B-y	2d	1g]
2C	2c	2e	.
2D	2A	2f	2r
[2BB-y	[2B-y	[2d	2f
=39	=39	=39	=39
4BB-]	2B-]	4d]	2.f
4C	.	4c	.
4D	1A	1f	.
4E	.	.	4g
2F	.	.	2a
2G	[2d	4e	2b-y
.	.	4d	.
=40	=40	=40	=40
1C	2d]	2.e	[0gl
.	1c	.	.
.	.	4c	.
1G	.	1d	.
.	2BnXi	.	.
=41	=41	=41	=41
0Cl	0cl	0el	0g]
=42||	=42||	=42||	=42||
*M2/1	*M2/1	*M2/1	*M2/1
*met(C|)	*met(C|)	*met(C|)	*met(C|)
!!section: Pleni sunt
!!!OMD: Pleni sunt
0c	0r	0r	0r
=43	=43	=43	=43
1A	0r	0r	0r
2.F	.	.	.
4G	.	.	.
=44	=44	=44	=44
4A	1.c	0r	0r
4B-y	.	.	.
1A	.	.	.
4G	2d	.	.
4F	.	.	.
=45	=45	=45	=45
1G	1e	0r	0r
2r	2.f	.	.
[2F	.	.	.
.	4e	.	.
=46	=46	=46	=46
2F]	2c	0r	0r
2G	1e	.	.
1A	.	.	.
.	4d	.	.
.	4c	.	.
=47	=47	=47	=47
1B-y	1d	0r	0r
[1A	2r	.	.
.	[2c	.	.
=48	=48	=48	=48
2A]	2c]	0r	0r
4G	2d	.	.
4F	.	.	.
2G	1e	.	.
2A	.	.	.
=49	=49	=49	=49
4D	1f	0r	0r
4E	.	.	.
4F	.	.	.
4G	.	.	.
2A	2e	.	.
2B-y	[2d	.	.
=50	=50	=50	=50
2F	2d]	0r	0r
1B-y	4c	.	.
.	4B-y	.	.
.	2.c	.	.
2A	.	.	.
.	4B-y	.	.
=51	=51	=51	=51
2B-y	4G	0r	0r
.	4A	.	.
2.BB-y	4B-y	.	.
.	4c	.	.
.	4d	.	.
4C	4e	.	.
4D	2f	.	.
4E	.	.	.
=52	=52	=52	=52
4F	2c	0r	0r
4G	.	.	.
4A	1f	.	.
4B-y	.	.	.
1G	.	.	.
.	2e	.	.
=53	=53	=53	=53
2.F	2f	0r	0r
.	2.F	.	.
4G	.	.	.
4A	.	.	.
4B-y	4G	.	.
2c	4A	.	.
.	4B-y	.	.
=54	=54	=54	=54
2F	4c	0r	0r
.	4d	.	.
1c	4e	.	.
.	4f	.	.
.	1d	.	.
2B-y	.	.	.
=55	=55	=55	=55
2A	0c	0r	0r
4G	.	.	.
4F	.	.	.
2E	.	.	.
[2F	.	.	.
=56	=56	=56	=56
4F]	2r	0r	0r
4G	.	.	.
2A	1f	.	.
1G	.	.	.
.	2e	.	.
=57	=57	=57	=57
0F	2d	0r	0r
.	4c	.	.
.	4B-y	.	.
.	2A	.	.
.	[2c	.	.
=58	=58	=58	=58
2r	4c]	0r	0r
.	4d	.	.
1c	2e	.	.
.	1d	.	.
2B-y	.	.	.
=59	=59	=59	=59
2A	[0c	0r	0r
4G	.	.	.
4F	.	.	.
2E	.	.	.
2F	.	.	.
=60	=60	=60	=60
2C	0c]	0r	0r
4F	.	.	.
4G	.	.	.
4A	.	.	.
4B-y	.	.	.
[2c	.	.	.
=61	=61	=61	=61
2c]	1.g	0r	0r
4B-y	.	.	.
4A	.	.	.
2B-y	.	.	.
2A	4f	.	.
.	4e	.	.
=62	=62	=62	=62
2F	2f	0r	0r
1A	2e	.	.
.	2c	.	.
4G	[2d	.	.
4F	.	.	.
=63	=63	=63	=63
2G	2d]	0r	0r
1A	2c	.	.
.	1B-y	.	.
2G	.	.	.
=64	=64	=64	=64
1A	2r	0r	0r
.	2.F	.	.
1r	.	.	.
.	4G	.	.
.	4A	.	.
.	4B-y	.	.
=65	=65	=65	=65
0F	2c	0r	0r
.	2d	.	.
.	2A	.	.
.	[2d	.	.
=66	=66	=66	=66
0F	2d]	0r	0r
.	4c	.	.
.	4B-y	.	.
.	2c	.	.
.	[2f	.	.
=67	=67	=67	=67
1.c	2f]	0r	0r
.	4e	.	.
.	4d	.	.
.	2e	.	.
4B-y	2f	.	.
4A	.	.	.
=68	=68	=68	=68
2B-y	2g	0r	0r
2A	1f	.	.
1G	.	.	.
.	2e	.	.
=69	=69	=69	=69
0Fl	0fl	0r	0r
=70||	=70||	=70||	=70||
*M3/1	*M3/1	*M3/1	*M3/1
*met(O|3)	*met(O|3)	*met(O|3)	*met(O|3)
!!section: Osanna
!!!OMD: Osanna
0.r	0.r	0f	0.r
.	.	1e	.
=71	=71	=71	=71
0.r	0.r	1d	1r
.	.	1.f	1r
.	.	.	[1cc
.	.	2e	.
=72	=72	=72	=72
0.r	0.r	1f	1cc]
.	.	1g	1b-y
.	.	1d	1a
=73	=73	=73	=73
0F	0.r	1.a	1.cc
.	.	4g	2b-y
.	.	4f	.
1E	.	1g	1cc
=74	=74	=74	=74
1D	1r	1.f	1dd
1.F	1r	.	0a
.	.	2e	.
.	[1c	2f	.
2E	.	2g	.
=75	=75	=75	=75
1F	1c]	1a	0.r
1G	1B-y	2d	.
.	.	2e	.
1D	1A	2f	.
.	.	2d	.
=76	=76	=76	=76
0.A	1.c	1.e	0.r
.	2B-y	2d	.
.	1c	1f	.
=77	=77	=77	=77
1G	1d	1B-y	1r
1.F	0A	0f	1r
.	.	.	[1cc
2G	.	.	.
=78	=78	=78	=78
1A	0.r	1e	1cc]
1B-y	.	1d	1b-y
1F	.	[1f	1a
=79	=79	=79	=79
0.A	0.r	2f]	1.cc
.	.	2e	.
.	.	2f	.
.	.	2g	2b-y
.	.	1a	1cc
=80	=80	=80	=80
1G	1r	0d	1dd
1.F	0f	.	1.a
.	.	[1c	.
2G	.	.	2b-y
=81	=81	=81	=81
1A	1f	1c]	1cc
1B-y	0f	1d	1f
1F	.	1c	1a
=82	=82	=82	=82
1.BB-y	0d	1.f	1b-y
.	.	.	1.dd
2C	.	2e	.
2D	[1f	1d	.
2E	.	.	2cc
=83	=83	=83	=83
1F	1f]	1c	1a
1C	0e	1.g	1.cc
[1c	.	.	.
.	.	2f	2dd
=84	=84	=84	=84
1c]	1c	1e	1ee
1B-y	1.d	1d	1.ff
[1A	.	[1e	.
.	2c	.	2ee
=85	=85	=85	=85
1A]	0c	2e]	0ee
.	.	2f	.
0G	.	0g	.
.	1BnXi	.	1dd
=86	=86	=86	=86
*M2/1	*M2/1	*M2/1	*M2/1
*met(C|)	*met(C|)	*met(C|)	*met(C|)
1C	2.c	1.g	1.ee
.	4d	.	.
1r	2e	.	.
.	2f	2a	4dd
.	.	.	4cc
=87	=87	=87	=87
2.C	2e	1.g	0cc
.	1c	.	.
4D	.	.	.
2E	.	.	.
2F	2A	2f	.
=88	=88	=88	=88
2G	2B-y	1e	1r
2.A	2c	.	.
.	1F	1f	[1cc
4B-y	.	.	.
[2c	.	.	.
=89	=89	=89	=89
2c]	1r	2g	2cc]
2B-y	.	2b-y	2dd
2c	2.F	2a	[1cc
[2A	.	4g	.
.	4G	4f	.
=90	=90	=90	=90
2A]	2A	4e	2cc]
.	.	4d	.
2G	2B-y	2.g	2b-y
2A	2c	.	1a
.	.	4f	.
2D	2d	[2f	.
=91	=91	=91	=91
1A	1c	2f]	1cc
.	.	2e	.
1r	2B-y	2f	2dd
.	2A	[2a	2ff
=92	=92	=92	=92
2.C	2.c	4a]	2ee
.	.	4g	.
.	.	1g	4dd
4D	4B-y	.	4cc
2E	2G	.	4b-y
.	.	.	4a
2F	2A	4f	[2dd
.	.	4e	.
=93	=93	=93	=93
2G	2B-y	2d	4dd]
.	.	.	4cc
2A	2c	2f	1cc
1G	1d	1g	.
.	.	.	2bnXi
=94	=94	=94	=94
1C	1c	1e	0cc
[1F	2.A	1c	.
.	4B-y	.	.
=95	=95	=95	=95
2F]	2c	1f	2.a
4E	2d	.	.
4D	.	.	4b-y
2C	2e	2g	2cc
2BB-y	[2f	2b-y	2dd
=96	=96	=96	=96
2.F	2f]	2a	2cc
.	4e	4g	1a
4G	4d	4f	.
2A	2c	4e	.
.	.	4d	.
2B-y	2d	[2g	2g
=97	=97	=97	=97
2c	2e	4g]	2.a
.	.	4f	.
2d	2f	1f	.
.	.	.	4b-y
1c	2g	.	4cc
.	.	.	4b-y
.	[2c	2e	4a
.	.	.	4g
=98	=98	=98	=98
2F	2c]	[0fl	2a
1B-y	1d	.	2f
.	.	.	1b-y
4A	4c	.	.
4G	4B-y	.	.
=99	=99	=99	=99
0Fl	0cl	0f]	0al
=100||	=100||	=100||	=100||
*M2/1	*M2/1	*M2/1	*M2/1
*met(C|)	*met(C|)	*met(C|)	*met(C|)
!!section: Benedictus
!!!OMD: Benedictus
0r	0r	0f	0r
=101	=101	=101	=101
0r	0r	1d	0f
.	.	1B-y	.
=102	=102	=102	=102
0r	0r	2.f	1.a
.	.	4e	.
.	.	2f	.
.	.	2g	2b-y
=103	=103	=103	=103
0r	0r	2e	2.cc
.	.	2.f	.
.	.	.	4b-y
.	.	.	2cc
.	.	4e	.
.	.	4d	[2dd
.	.	4c	.
=104	=104	=104	=104
0r	0r	2.B-y	4dd]
.	.	.	4cc
.	.	.	4b-y
.	.	4c	4a
.	.	2d	1b-y
.	.	2e-X	.
=105	=105	=105	=105
0r	0r	2c	1a
.	.	2d	.
.	.	2e	2r
.	.	[2f	[2a
=106	=106	=106	=106
0r	0r	2f]	2a]
.	.	4e	2b-y
.	.	4d	.
.	.	2e	2.cc
.	.	2f	.
.	.	.	4dd
=107	=107	=107	=107
0r	0r	2.c	2ee
.	.	.	2.cc
.	.	4d	.
.	.	2e	.
.	.	.	4b-y
.	.	[2f	4a
.	.	.	4g
=108	=108	=108	=108
0r	0r	2f]	2a
.	.	4e	2b-y
.	.	4d	.
.	.	2e	2g
.	.	2f	[2cc
=109	=109	=109	=109
0r	0r	1d	2cc]
.	.	.	2bnXi
.	.	[1c	1cc
=110	=110	=110	=110
0r	0r	1c]	2r
.	.	.	1g
.	.	2r	.
.	.	[2d	2a
=111	=111	=111	=111
0r	0r	2d]	2b-y
.	.	2e	2.cc
.	.	2f	.
.	.	.	4a
.	.	2g	2b-y
=112	=112	=112	=112
0r	0r	1a	2f
.	.	.	2.cc
.	.	2f	.
.	.	.	4a
.	.	[2g	2b-y
=113	=113	=113	=113
0r	0r	4g]	2f
.	.	4f	.
.	.	1f	2a
.	.	.	2g
.	.	2e	[2cc
=114	=114	=114	=114
0r	0r	2f	2cc]
.	.	2.d	4b-y
.	.	.	4a
.	.	.	2b-y
.	.	4c	.
.	.	4A	2cc
.	.	4B-y	.
=115	=115	=115	=115
0r	0r	2c	2a
.	.	2d	2.b-y
.	.	2A	.
.	.	.	4a
.	.	2c	[2a
=116	=116	=116	=116
0r	0r	1B-y	2a]
.	.	.	2g
.	.	1r	[1a
=117	=117	=117	=117
0r	0r	1.f	1a]
.	.	.	1a
.	.	2d	.
=118	=118	=118	=118
0r	0r	2e	1.cc
.	.	1f	.
.	.	4e	2dd
.	.	4d	.
=119	=119	=119	=119
0r	0r	2c	2.ee
.	.	2g	.
.	.	.	4dd
.	.	2g	2ee
.	.	2a	[2ff
=120	=120	=120	=120
0r	0r	2.b-y	4ff]
.	.	.	4ee
.	.	.	4dd
.	.	4a	4cc
.	.	4g	2dd
.	.	4f	.
.	.	2g	4cc
.	.	.	4b-y
=121	=121	=121	=121
0r	0r	2f	4a
.	.	.	4b-y
.	.	2.a	4cc
.	.	.	4dd
.	.	.	2ee
.	.	4g	.
.	.	4f	[2dd
.	.	4e	.
=122	=122	=122	=122
0r	0r	2f	2dd]
.	.	2e	1cc
.	.	1d	.
.	.	.	2bnXi
=123	=123	=123	=123
0r	0r	0cl	0ccl
==	==	==	==
*-	*-	*-	*-
!!!system-decoration: s1,s2,s3,s4
!!!RDF**kern: i = editorial accidental
!!!RDF**kern: l = terminal long
!!!ENC: Maura Sugg 
!!!END: 2026/3/20
!!!EED: Benjamin Ory
!!!EEV: 2026/03/25
!!!YEC: Copyright 2026 Irene Holzer, All Rights Reserved
!!!ONB: Translated from MusicXML on 2026/03/25
!!!verovio: header encoded
!!!header-left: Edited by Irene Holzer\n
!!!header-right:
!!!header-center: